curriculum/images/exercise-icons/smashing-blocks.svg

<svg width="82" height="82" viewBox="0 0 82 82" fill="none" xmlns="http://www.w3.org/2000/svg">
<path d="M1.05103 41C1.05103 51.6087 5.2653 61.7828 12.7668 69.2843C20.2682 76.7857 30.4424 81 41.051 81C51.6597 81 61.8338 76.7857 69.3353 69.2843C76.8368 61.7828 81.051 51.6087 81.051 41C81.051 30.3913 76.8368 20.2172 69.3353 12.7157C61.8338 5.21427 51.6597 1 41.051 1C30.4424 1 20.2682 5.21427 12.7668 12.7157C5.2653 20.2172 1.05103 30.3913 1.05103 41Z" fill="#DAEDF7" stroke="#DAEDF7"/>
<path d="M8.06304 60.094H5.89404C6.8287 61.8102 7.88787 63.4556 9.06304 65.017V61.094C9.06304 60.8288 8.95769 60.5744 8.77015 60.3869C8.58261 60.1994 8.32826 60.094 8.06304 60.094Z" fill="#FFF2D9"/>
<path d="M8.06304 47.104H1.51404C1.85493 49.3094 2.38113 51.4821 3.08704 53.599H8.06304C8.32825 53.599 8.58261 53.4936 8.77015 53.3061C8.95768 53.1186 9.06304 52.8642 9.06304 52.599V48.104C9.06304 47.8388 8.95768 47.5844 8.77015 47.3969C8.58261 47.2094 8.32825 47.104 8.06304 47.104Z" fill="#00B8F0"/>
<path d="M8.06304 40.61C8.32825 40.61 8.58261 40.5046 8.77014 40.3171C8.95768 40.1296 9.06304 39.8752 9.06304 39.61V35.115C9.06304 34.8498 8.95768 34.5954 8.77014 34.4079C8.58261 34.2204 8.32825 34.115 8.06304 34.115H1.65304C1.27992 36.2604 1.08194 38.4325 1.06104 40.61H8.06304Z" fill="white"/>
<path d="M10.31 66.588H23.687C23.9522 66.588 24.2066 66.4826 24.3941 66.2951C24.5816 66.1076 24.687 65.8532 24.687 65.588V61.094C24.687 60.8288 24.5816 60.5744 24.3941 60.3869C24.2066 60.1994 23.9522 60.094 23.687 60.094H10.063C9.79777 60.094 9.54342 60.1994 9.35588 60.3869C9.16835 60.5744 9.06299 60.8288 9.06299 61.094V65.017" fill="#FFE500"/>
<path d="M10.31 66.588H23.687C23.9522 66.588 24.2066 66.4826 24.3941 66.2951C24.5816 66.1076 24.687 65.8532 24.687 65.588V61.094C24.687 60.8288 24.5816 60.5744 24.3941 60.3869C24.2066 60.1994 23.9522 60.094 23.687 60.094H10.063C9.79777 60.094 9.54342 60.1994 9.35588 60.3869C9.16835 60.5744 9.06299 60.8288 9.06299 61.094V65.017" stroke="#45413C" stroke-linecap="round" stroke-linejoin="round"/>
<path d="M15.875 53.599H3.08704C3.82783 55.8431 4.76722 58.0167 5.89404 60.094H15.875C16.1403 60.094 16.3946 59.9886 16.5821 59.8011C16.7697 59.6136 16.875 59.3592 16.875 59.094V54.599C16.875 54.3338 16.7697 54.0794 16.5821 53.8919C16.3946 53.7044 16.1403 53.599 15.875 53.599Z" fill="white"/>
<path d="M1.44897 47.104H15.875C16.1402 47.104 16.3945 46.9986 16.5821 46.8111C16.7696 46.6236 16.875 46.3692 16.875 46.104V41.61C16.875 41.3448 16.7696 41.0904 16.5821 40.9029C16.3945 40.7153 16.1402 40.61 15.875 40.61H0.948975" fill="white"/>
<path d="M9.06299 47.104H24.687V53.599H9.06299V47.104Z" fill="white" stroke="#45413C" stroke-linecap="round" stroke-linejoin="round"/>
<path d="M24.687 60.093H40.311V66.588H24.687V60.093Z" fill="white" stroke="#45413C" stroke-linecap="round" stroke-linejoin="round"/>
<path d="M16.875 53.599H32.499V60.094H16.875V53.599Z" fill="#6DD627" stroke="#45413C" stroke-linecap="round" stroke-linejoin="round"/>
<path d="M40.311 60.093H55.935V66.588H40.311V60.093Z" fill="white" stroke="#45413C" stroke-linecap="round" stroke-linejoin="round"/>
<path d="M15.875 27.621H3.35099C2.6251 29.6719 2.06889 31.779 1.68799 33.921C1.8497 34.045 2.04631 34.1149 2.24999 34.121H15.875C16.1402 34.121 16.3946 34.0156 16.5821 33.8281C16.7696 33.6405 16.875 33.3862 16.875 33.121V28.621C16.875 28.3558 16.7696 28.1014 16.5821 27.9139C16.3946 27.7263 16.1402 27.621 15.875 27.621Z" fill="#FF6242"/>
<path d="M48.123 53.599H63.747V60.094H48.123V53.599Z" fill="white" stroke="#45413C" stroke-linecap="round" stroke-linejoin="round"/>
<path d="M55.9351 60.093H71.5591V66.588H55.9351V60.093Z" fill="#6DD627" stroke="#45413C" stroke-linecap="round" stroke-linejoin="round"/>
<path d="M55.9351 47.104H71.5591V53.599H55.9351V47.104Z" fill="white" stroke="#45413C" stroke-linecap="round" stroke-linejoin="round"/>
<path d="M55.9351 34.115H71.5591V40.61H55.9351V34.115Z" fill="white" stroke="#45413C" stroke-linecap="round" stroke-linejoin="round"/>
<path d="M78.9449 53.802C78.7799 53.6757 78.5788 53.6056 78.3709 53.6021H64.7469C64.4817 53.6021 64.2274 53.7074 64.0398 53.8949C63.8523 54.0825 63.7469 54.3368 63.7469 54.6021V59.094C63.7469 59.3593 63.8523 59.6136 64.0398 59.8012C64.2274 59.9887 64.4817 60.094 64.7469 60.094H76.2069" fill="#FF6242"/>
<path d="M78.9449 53.802C78.7799 53.6757 78.5788 53.6056 78.3709 53.6021H64.7469C64.4817 53.6021 64.2274 53.7074 64.0398 53.8949C63.8523 54.0825 63.7469 54.3368 63.7469 54.6021V59.094C63.7469 59.3593 63.8523 59.6136 64.0398 59.8012C64.2274 59.9887 64.4817 60.094 64.7469 60.094H76.2069" stroke="#45413C" stroke-linecap="round" stroke-linejoin="round"/>
<path d="M63.7469 40.61H79.3709V47.105H63.7469V40.61Z" fill="#FFE500" stroke="#45413C" stroke-linecap="round" stroke-linejoin="round"/>
<path d="M78.7809 27.713C78.6525 27.6531 78.5127 27.6217 78.3709 27.621H64.7469C64.4817 27.621 64.2274 27.7263 64.0398 27.9139C63.8523 28.1014 63.7469 28.3558 63.7469 28.621V33.115C63.7469 33.3802 63.8523 33.6345 64.0398 33.8221C64.2274 34.0096 64.4817 34.115 64.7469 34.115H80.4469" fill="#00B8F0"/>
<path d="M78.7809 27.713C78.6525 27.6531 78.5127 27.6217 78.3709 27.621H64.7469C64.4817 27.621 64.2274 27.7263 64.0398 27.9139C63.8523 28.1014 63.7469 28.3558 63.7469 28.621V33.115C63.7469 33.3802 63.8523 33.6345 64.0398 33.8221C64.2274 34.0096 64.4817 34.115 64.7469 34.115H80.4469" stroke="#45413C" stroke-linecap="round" stroke-linejoin="round"/>
<path d="M76.207 60.094H72.559C72.2937 60.094 72.0394 60.1994 71.8519 60.3869C71.6643 60.5744 71.559 60.8288 71.559 61.094V65.589C71.561 65.7433 71.5994 65.895 71.671 66.0317C71.7426 66.1684 71.8453 66.2864 71.971 66.376" fill="#FFF2D9"/>
<path d="M76.207 60.094H72.559C72.2937 60.094 72.0394 60.1994 71.8519 60.3869C71.6643 60.5744 71.559 60.8288 71.559 61.094V65.589C71.561 65.7433 71.5994 65.895 71.671 66.0317C71.7426 66.1684 71.8453 66.2864 71.971 66.376" stroke="#45413C" stroke-linecap="round" stroke-linejoin="round"/>
<path d="M80.587 47.104H72.559C72.2937 47.104 72.0394 47.2094 71.8519 47.3969C71.6643 47.5844 71.559 47.8388 71.559 48.104V52.599C71.559 52.8642 71.6643 53.1186 71.8519 53.3061C72.0394 53.4936 72.2937 53.599 72.559 53.599H79.014" fill="white"/>
<path d="M80.587 47.104H72.559C72.2937 47.104 72.0394 47.2094 71.8519 47.3969C71.6643 47.5844 71.559 47.8388 71.559 48.104V52.599C71.559 52.8642 71.6643 53.1186 71.8519 53.3061C72.0394 53.4936 72.2937 53.599 72.559 53.599H79.014" stroke="#45413C" stroke-linecap="round" stroke-linejoin="round"/>
<path d="M80.448 34.115H72.559C72.2937 34.115 72.0394 34.2204 71.8519 34.4079C71.6643 34.5954 71.559 34.8498 71.559 35.115V39.61C71.559 39.8752 71.6643 40.1296 71.8519 40.3171C72.0394 40.5046 72.2937 40.61 72.559 40.61H81.041" fill="white"/>
<path d="M80.448 34.115H72.559C72.2937 34.115 72.0394 34.2204 71.8519 34.4079C71.6643 34.5954 71.559 34.8498 71.559 35.115V39.61C71.559 39.8752 71.6643 40.1296 71.8519 40.3171C72.0394 40.5046 72.2937 40.61 72.559 40.61H81.041" stroke="#45413C" stroke-linecap="round" stroke-linejoin="round"/>
<path d="M81.041 40.61H80.371C80.1058 40.61 79.8514 40.7153 79.6639 40.9029C79.4763 41.0904 79.371 41.3448 79.371 41.61V46.104C79.371 46.3692 79.4763 46.6236 79.6639 46.8111C79.8514 46.9986 80.1058 47.104 80.371 47.104H80.587" fill="#FFF2D9"/>
<path d="M81.041 40.61H80.371C80.1058 40.61 79.8514 40.7153 79.6639 40.9029C79.4763 41.0904 79.371 41.3448 79.371 41.61V46.104C79.371 46.3692 79.4763 46.6236 79.6639 46.8111C79.8514 46.9986 80.1058 47.104 80.371 47.104H80.587" stroke="#45413C" stroke-linecap="round" stroke-linejoin="round"/>
<path d="M9.06304 65.016V61.094C9.06304 60.8288 8.95769 60.5744 8.77015 60.3869C8.58261 60.1994 8.32826 60.094 8.06304 60.094H5.89404" stroke="#45413C" stroke-linecap="round" stroke-linejoin="round"/>
<path d="M3.08704 53.599H8.06304C8.32825 53.599 8.58261 53.4936 8.77015 53.3061C8.95768 53.1186 9.06304 52.8642 9.06304 52.599V48.104C9.06304 47.8388 8.95768 47.5844 8.77015 47.3969C8.58261 47.2094 8.32825 47.104 8.06304 47.104H1.51404" stroke="#45413C" stroke-linecap="round" stroke-linejoin="round"/>
<path d="M1.06104 40.61H8.06104C8.32625 40.61 8.58061 40.5046 8.76814 40.3171C8.95568 40.1296 9.06104 39.8752 9.06104 39.61V35.115C9.06104 34.8498 8.95568 34.5954 8.76814 34.4079C8.58061 34.2204 8.32625 34.115 8.06104 34.115H1.65104" stroke="#45413C" stroke-linecap="round" stroke-linejoin="round"/>
<path d="M5.89404 60.094H15.875C16.1403 60.094 16.3946 59.9886 16.5821 59.8011C16.7697 59.6136 16.875 59.3592 16.875 59.094V54.599C16.875 54.3338 16.7697 54.0794 16.5821 53.8919C16.3946 53.7044 16.1403 53.599 15.875 53.599H3.08704" stroke="#45413C" stroke-linecap="round" stroke-linejoin="round"/>
<path d="M2.25 47.104H15.875C16.1402 47.104 16.3946 46.9986 16.5821 46.8111C16.7696 46.6236 16.875 46.3692 16.875 46.104V41.61C16.875 41.3448 16.7696 41.0904 16.5821 40.9029C16.3946 40.7153 16.1402 40.61 15.875 40.61H2.25" stroke="#45413C" stroke-linecap="round" stroke-linejoin="round"/>
<path d="M1.68799 33.92C1.8497 34.044 2.04631 34.1139 2.24999 34.12H15.875C16.1402 34.12 16.3946 34.0146 16.5821 33.8271C16.7696 33.6395 16.875 33.3852 16.875 33.12V28.621C16.875 28.3558 16.7696 28.1014 16.5821 27.9139C16.3946 27.7263 16.1402 27.621 15.875 27.621H3.35099" stroke="#45413C" stroke-linecap="round" stroke-linejoin="round"/>
<path d="M39.53 56.4345L41.0981 50.6202L55.0853 54.3925L53.5173 60.2067L39.53 56.4345Z" fill="#FFE500" stroke="#45413C" stroke-linecap="round" stroke-linejoin="round"/>
<path opacity="0.15" d="M26.051 71.701C26.051 71.9283 26.2974 72.1534 26.776 72.3634C27.2546 72.5734 27.9562 72.7642 28.8405 72.925C29.7249 73.0857 30.7748 73.2132 31.9304 73.3002C33.0859 73.3872 34.3243 73.432 35.575 73.432C36.8257 73.432 38.0642 73.3872 39.2197 73.3002C40.3752 73.2132 41.4251 73.0857 42.3095 72.925C43.1939 72.7642 43.8954 72.5734 44.3741 72.3634C44.8527 72.1534 45.099 71.9283 45.099 71.701C45.099 71.4737 44.8527 71.2486 44.3741 71.0386C43.8954 70.8285 43.1939 70.6377 42.3095 70.477C41.4251 70.3162 40.3752 70.1887 39.2197 70.1017C38.0642 70.0147 36.8257 69.97 35.575 69.97C34.3243 69.97 33.0859 70.0147 31.9304 70.1017C30.7748 70.1887 29.7249 70.3162 28.8405 70.477C27.9562 70.6377 27.2546 70.8285 26.776 71.0386C26.2974 71.2486 26.051 71.4737 26.051 71.701Z" fill="#45413C"/>
<path d="M30.0405 13.137L43.6406 9.03577L45.3452 14.6883L31.7451 18.7895L30.0405 13.137Z" fill="#FFE500" stroke="#45413C" stroke-linecap="round" stroke-linejoin="round"/>
<path d="M51.126 16.4687L55.0089 10.8401L68.5487 20.1805L64.6657 25.8092L51.126 16.4687Z" fill="#FF6242" stroke="#45413C" stroke-linecap="round" stroke-linejoin="round"/>
<path d="M52.1483 40.1532L68.0811 33.8861L70.6862 40.5092L54.7535 46.7762L52.1483 40.1532Z" fill="#6DD627" stroke="#45413C" stroke-linecap="round" stroke-linejoin="round"/>
<path d="M22.538 40.01C22.538 43.7819 24.0363 47.3993 26.7035 50.0664C29.3706 52.7336 32.9881 54.232 36.76 54.232C40.5319 54.232 44.1493 52.7336 46.8164 50.0664C49.4836 47.3993 50.982 43.7819 50.982 40.01C50.982 36.2381 49.4836 32.6206 46.8164 29.9535C44.1493 27.2863 40.5319 25.788 36.76 25.788C32.9881 25.788 29.3706 27.2863 26.7035 29.9535C24.0363 32.6206 22.538 36.2381 22.538 40.01Z" fill="#FFE500" stroke="#FFE500" stroke-linecap="round" stroke-linejoin="round"/>
<path d="M25.038 43.5101C25.0364 40.6817 25.8786 37.9173 27.4568 35.5702C29.0351 33.2232 31.2775 31.4003 33.8974 30.3347C36.5173 29.2692 39.3956 29.0094 42.1639 29.5885C44.9323 30.1677 47.465 31.5596 49.438 33.5861C48.5122 31.7584 47.2024 30.1525 45.5981 28.8783C43.9938 27.6041 42.1331 26.6918 40.1433 26.2039C38.1536 25.7159 36.0818 25.6638 34.0701 26.0512C32.0583 26.4386 30.1541 27.2563 28.4878 28.4483C26.8216 29.6403 25.4327 31.1784 24.4163 32.9572C23.3999 34.736 22.7801 36.7136 22.5993 38.7543C22.4185 40.795 22.6809 42.8507 23.3687 44.7805C24.0565 46.7103 25.1533 48.4687 26.584 49.9351C25.5684 47.9455 25.0386 45.7438 25.038 43.5101Z" fill="#FFF48C"/>
<path d="M22.538 40.01C22.538 43.7819 24.0363 47.3993 26.7035 50.0664C29.3706 52.7336 32.9881 54.232 36.76 54.232C40.5319 54.232 44.1493 52.7336 46.8164 50.0664C49.4836 47.3993 50.982 43.7819 50.982 40.01C50.982 36.2381 49.4836 32.6206 46.8164 29.9535C44.1493 27.2863 40.5319 25.788 36.76 25.788C32.9881 25.788 29.3706 27.2863 26.7035 29.9535C24.0363 32.6206 22.538 36.2381 22.538 40.01Z" stroke="#45413C" stroke-linecap="round" stroke-linejoin="round"/>
<path d="M3.67078 21.5336L7.26686 13.2418L27.2147 21.893L23.6186 30.1848L3.67078 21.5336Z" fill="#00B8F0" stroke="#45413C" stroke-linecap="round" stroke-linejoin="round"/>
<path d="M13.9587 46.7926L28.8103 41.2416L31.1175 47.4145L16.266 52.9655L13.9587 46.7926Z" fill="#FF6242" stroke="#45413C" stroke-linecap="round" stroke-linejoin="round"/>
</svg>

<svg xmlns="http://www.w3.org/2000/svg" width="82" height="82" fill="none" viewBox="0 0 82 82"><path fill="#daedf7" stroke="#daedf7" d="M1.051 41a40 40 0 1 0 80 0 40 40 0 0 0-80 0Z"/><path fill="#fff2d9" d="M8.063 60.094H5.894a40 40 0 0 0 3.169 4.923v-3.923a1 1 0 0 0-1-1"/><path fill="#00b8f0" d="M8.063 47.104H1.514c.34 2.205.867 4.378 1.573 6.495h4.976a1 1 0 0 0 1-1v-4.495a1 1 0 0 0-1-1"/><path fill="#fff" d="M8.063 40.61a1 1 0 0 0 1-1v-4.495a1 1 0 0 0-1-1h-6.41a40 40 0 0 0-.592 6.495z"/><path fill="#ffe500" d="M10.31 66.588h13.377a1 1 0 0 0 1-1v-4.494a1 1 0 0 0-1-1H10.063a1 1 0 0 0-1 1v3.923"/><path stroke="#45413c" stroke-linecap="round" stroke-linejoin="round" d="M10.31 66.588h13.377a1 1 0 0 0 1-1v-4.494a1 1 0 0 0-1-1H10.063a1 1 0 0 0-1 1v3.923"/><path fill="#fff" d="M15.875 53.599H3.087a40 40 0 0 0 2.807 6.495h9.981a1 1 0 0 0 1-1v-4.495a1 1 0 0 0-1-1M1.449 47.104h14.426a1 1 0 0 0 1-1V41.61a1 1 0 0 0-1-1H.949"/><path fill="#fff" stroke="#45413c" stroke-linecap="round" stroke-linejoin="round" d="M9.063 47.104h15.624v6.495H9.063zM24.687 60.093h15.624v6.495H24.687z"/><path fill="#6dd627" stroke="#45413c" stroke-linecap="round" stroke-linejoin="round" d="M16.875 53.599h15.624v6.495H16.875z"/><path fill="#fff" stroke="#45413c" stroke-linecap="round" stroke-linejoin="round" d="M40.311 60.093h15.624v6.495H40.311z"/><path fill="#ff6242" d="M15.875 27.621H3.351a40 40 0 0 0-1.663 6.3.97.97 0 0 0 .562.2h13.625a1 1 0 0 0 1-1v-4.5a1 1 0 0 0-1-1"/><path fill="#fff" stroke="#45413c" stroke-linecap="round" stroke-linejoin="round" d="M48.123 53.599h15.624v6.495H48.123z"/><path fill="#6dd627" stroke="#45413c" stroke-linecap="round" stroke-linejoin="round" d="M55.935 60.093H71.56v6.495H55.935z"/><path fill="#fff" stroke="#45413c" stroke-linecap="round" stroke-linejoin="round" d="M55.935 47.104H71.56v6.495H55.935zM55.935 34.115H71.56v6.495H55.935z"/><path fill="#ff6242" d="M78.945 53.802a.97.97 0 0 0-.574-.2H64.747a1 1 0 0 0-1 1v4.492a1 1 0 0 0 1 1h11.46"/><path stroke="#45413c" stroke-linecap="round" stroke-linejoin="round" d="M78.945 53.802a.97.97 0 0 0-.574-.2H64.747a1 1 0 0 0-1 1v4.492a1 1 0 0 0 1 1h11.46"/><path fill="#ffe500" stroke="#45413c" stroke-linecap="round" stroke-linejoin="round" d="M63.747 40.61H79.37v6.495H63.747z"/><path fill="#00b8f0" d="M78.78 27.713a1 1 0 0 0-.41-.092H64.748a1 1 0 0 0-1 1v4.494a1 1 0 0 0 1 1h15.7"/><path stroke="#45413c" stroke-linecap="round" stroke-linejoin="round" d="M78.78 27.713a1 1 0 0 0-.41-.092H64.748a1 1 0 0 0-1 1v4.494a1 1 0 0 0 1 1h15.7"/><path fill="#fff2d9" d="M76.207 60.094h-3.648a1 1 0 0 0-1 1v4.495a.98.98 0 0 0 .412.787"/><path stroke="#45413c" stroke-linecap="round" stroke-linejoin="round" d="M76.207 60.094h-3.648a1 1 0 0 0-1 1v4.495a.98.98 0 0 0 .412.787"/><path fill="#fff" d="M80.587 47.104h-8.028a1 1 0 0 0-1 1v4.495a1 1 0 0 0 1 1h6.455"/><path stroke="#45413c" stroke-linecap="round" stroke-linejoin="round" d="M80.587 47.104h-8.028a1 1 0 0 0-1 1v4.495a1 1 0 0 0 1 1h6.455"/><path fill="#fff" d="M80.448 34.115h-7.889a1 1 0 0 0-1 1v4.495a1 1 0 0 0 1 1h8.482"/><path stroke="#45413c" stroke-linecap="round" stroke-linejoin="round" d="M80.448 34.115h-7.889a1 1 0 0 0-1 1v4.495a1 1 0 0 0 1 1h8.482"/><path fill="#fff2d9" d="M81.041 40.61h-.67a1 1 0 0 0-1 1v4.494a1 1 0 0 0 1 1h.216"/><path stroke="#45413c" stroke-linecap="round" stroke-linejoin="round" d="M81.041 40.61h-.67a1 1 0 0 0-1 1v4.494a1 1 0 0 0 1 1h.216M9.063 65.016v-3.922a1 1 0 0 0-1-1H5.894M3.087 53.599h4.976a1 1 0 0 0 1-1v-4.495a1 1 0 0 0-1-1H1.514M1.061 40.61h7a1 1 0 0 0 1-1v-4.495a1 1 0 0 0-1-1h-6.41M5.894 60.094h9.981a1 1 0 0 0 1-1v-4.495a1 1 0 0 0-1-1H3.087M2.25 47.104h13.625a1 1 0 0 0 1-1V41.61a1 1 0 0 0-1-1H2.25"/><path stroke="#45413c" stroke-linecap="round" stroke-linejoin="round" d="M1.688 33.92a.97.97 0 0 0 .562.2h13.625a1 1 0 0 0 1-1v-4.499a1 1 0 0 0-1-1H3.351"/><path fill="#ffe500" stroke="#45413c" stroke-linecap="round" stroke-linejoin="round" d="m39.53 56.435 1.568-5.815 13.987 3.773-1.568 5.814z"/><path fill="#45413c" d="M26.051 71.701c0 .227.246.452.725.662s1.18.401 2.064.562c.885.16 1.935.288 3.09.375 1.156.087 2.394.132 3.645.132s2.49-.045 3.645-.132a30 30 0 0 0 3.09-.375c.884-.16 1.585-.352 2.064-.562s.725-.435.725-.662-.246-.452-.725-.662-1.18-.401-2.065-.562a30 30 0 0 0-3.09-.375 49 49 0 0 0-3.644-.132c-1.25 0-2.49.045-3.645.132a30 30 0 0 0-3.09.375c-.884.16-1.585.352-2.064.562s-.725.435-.725.662" opacity=".15"/><path fill="#ffe500" stroke="#45413c" stroke-linecap="round" stroke-linejoin="round" d="m30.04 13.137 13.6-4.101 1.705 5.652-13.6 4.102z"/><path fill="#ff6242" stroke="#45413c" stroke-linecap="round" stroke-linejoin="round" d="m51.126 16.469 3.883-5.629 13.54 9.34-3.883 5.63z"/><path fill="#6dd627" stroke="#45413c" stroke-linecap="round" stroke-linejoin="round" d="m52.148 40.153 15.933-6.267 2.605 6.623-15.933 6.267z"/><path fill="#ffe500" stroke="#ffe500" stroke-linecap="round" stroke-linejoin="round" d="M22.538 40.01a14.222 14.222 0 1 0 28.443 0 14.222 14.222 0 0 0-28.443 0"/><path fill="#fff48c" d="M25.038 43.51a14.215 14.215 0 0 1 24.4-9.924 14.214 14.214 0 1 0-22.854 16.35 14.14 14.14 0 0 1-1.546-6.426"/><path stroke="#45413c" stroke-linecap="round" stroke-linejoin="round" d="M22.538 40.01a14.222 14.222 0 1 0 28.443 0 14.222 14.222 0 0 0-28.443 0"/><path fill="#00b8f0" stroke="#45413c" stroke-linecap="round" stroke-linejoin="round" d="m3.67 21.534 3.597-8.292 19.948 8.651-3.596 8.292z"/><path fill="#ff6242" stroke="#45413c" stroke-linecap="round" stroke-linejoin="round" d="m13.959 46.793 14.851-5.551 2.308 6.172-14.852 5.551z"/></svg>
